X:46
T:2. Gaillarde
C:Tielman Susato
B:Tielman Susato: "Danserye" (1551) no. 46
R:Galliard
Z:Transcribed by Frank Nordberg - http://www.musicaviva.com
F:http://abc.musicaviva.com/tunes/susato-tielman/susato-1551-46/susato-1551-46-4m.abc
M:3/2
L:1/2
K:Ddor
V:1
AAA|A2G|F2E|F2F|FED|C>DE|FED|^C2z:|
|:EE/E/E/E/|G2G|E2D/C/|B,2G,|G>F E/D/|C/D/E/F/E/D/|D2^C|D2z:|
V:2
CCC|C2C|A,C2|C3|CCA,|A,2B,|A,CA,|A,2z:|
|:CCC|C2B,|G,C,2|D,2B,|CCC|C2C|A,A,2|A,2z:|
V:3
F,F,F,|F,2E,|F,G,2|A,3|A,G,F,|E,>F,G,|A,G,F,|E,2z:|
|:A,G,G,|E,2D,|C,E,^F,|G,2G,|G,2G,|A,2G,|F,E,2|D,2z:|
V:4
F,,F,,F,,|F,,2C,|D,C,2|F,,3|F,,C,D,|A,,2G,,|F,,C,D,|A,,2z:|
|:A,,C,C,|C,2G,,|C,>B,,A,,|G,,3|C,C,C,|A,,2C,|D,A,,2|D,2z:|
W:
W:
W:  From Musica Viva - http://www.musicaviva.com
W:  the Internet center for free sheet music downloads.
